X:1
T:c
C:Kerry Mills
L:1/8
M:2/4
I:linebreak $
K:G
V:1 treble nm="iddle" snm="iddle"
V:1
 D2 |:"G" G3 [Geg]2 | d3 B | ce ge | d3 B | cc/B/ Ac | B-B/A/ GB |1 AE FG ||$ AA/F/ DD :|2,7 %9
 AE F/E/D ||"G" G2 gf |: e2 e>e | eg fe | d2 B2- | Bd ed |$ d2 A2- | Ad ed | d2 B2- | B2 gf :|2137 %19
 d2 A2- || Ac BA | G4- | G2 z D2 |] %23
